sources/design/Outline/caron.svg

<svg:svg xmlns:cc="http://creativecommons.org/ns#" xmlns:dc="http://purl.org/dc/elements/1.1/" xmlns:inkscape="http://www.inkscape.org/namespaces/inkscape" xmlns:rdf="http://www.w3.org/1999/02/22-rdf-syntax-ns#" xmlns:sodipodi="http://sodipodi.sourceforge.net/DTD/sodipodi-0.dtd" xmlns:svg="http://www.w3.org/2000/svg" xml:space="preserve" width="1000" height="1000" version="1.1" style="clip-rule:evenodd;fill-rule:evenodd;image-rendering:optimizeQuality;shape-rendering:geometricPrecision;text-rendering:geometricPrecision" viewBox="0 0 1000 1000" id="svg10" sodipodi:docname="caron.svg" inkscape:version="1.1.1 (3bf5ae0d25, 2021-09-20)"><svg:text text-anchor="middle" x="153.92377" y="106.98389" id="top" inkscape:label="top" style="clip-rule:evenodd;fill-rule:evenodd;image-rendering:optimizeQuality;shape-rendering:geometricPrecision;text-rendering:geometricPrecision">✛</svg:text><svg:metadata id="metadata14"><rdf:RDF><cc:Work rdf:about=""><dc:format>image/svg+xml</dc:format><dc:type rdf:resource="http://purl.org/dc/dcmitype/StillImage" /><dc:title /></cc:Work></rdf:RDF></svg:metadata><sodipodi:namedview pagecolor="#ffffff" bordercolor="#666666" borderopacity="1" objecttolerance="10" gridtolerance="10" guidetolerance="10" inkscape:pageopacity="0" inkscape:pageshadow="2" inkscape:window-width="1920" inkscape:window-height="1009" id="namedview12" showgrid="false" inkscape:zoom="1.2005384" inkscape:cx="92.874997" inkscape:cy="84.128921" inkscape:window-x="0" inkscape:window-y="60" inkscape:window-maximized="1" inkscape:current-layer="svg10" showguides="true" inkscape:guide-bbox="true" inkscape:document-rotation="0" inkscape:pagecheckerboard="0"><sodipodi:guide position="0,1000" orientation="0,1" id="guide16" inkscape:label="" inkscape:locked="true" inkscape:color="rgb(0,0,255)" /><sodipodi:guide position="1763.3122,2036.1693" orientation="1000,0" id="guide18" /><sodipodi:guide position="0,200" orientation="0,1" id="guide20" inkscape:label="base" inkscape:locked="true" inkscape:color="rgb(0,0,255)" /><inkscape:grid type="xygrid" id="grid24" originx="-473.37552" originy="-489.69235" /><sodipodi:guide position="0,0" orientation="0,1" id="guide34" inkscape:label="bottom" inkscape:locked="true" inkscape:color="rgb(0,0,255)" /><sodipodi:guide position="225.05109,1693.3186" orientation="0,1" id="guide44" inkscape:label="" inkscape:locked="false" inkscape:color="rgb(0,0,255)" /><sodipodi:guide position="0,900" orientation="0,1" id="guide46" inkscape:label="" inkscape:locked="true" inkscape:color="rgb(0,0,255)" /><sodipodi:guide position="315.41807,1130.6747" orientation="1,0" id="guide841" inkscape:label="width" />    <sodipodi:guide position="-210.85892,799.74293" orientation="0,-1" id="guide856" /></sodipodi:namedview>
 <svg:defs id="defs4"><inkscape:path-effect effect="fillet_chamfer" id="path-effect861" is_visible="true" lpeversion="1" satellites_param="F,0,0,1,0,11.442237,0,1 @ F,0,1,1,0,11.442237,0,1 @ F,0,0,1,0,0,0,1 @ F,0,0,1,0,0,0,1 @ F,0,1,1,0,11.442237,0,1 @ F,0,1,1,0,11.442237,0,1 @ F,0,0,1,0,0,0,1 @ F,0,1,1,0,11.442237,0,1 @ F,0,0,1,0,0,0,1" unit="px" method="auto" mode="F" radius="0" chamfer_steps="1" flexible="false" use_knot_distance="true" apply_no_radius="true" apply_with_radius="true" only_selected="false" hide_knots="false" /><inkscape:path-effect effect="fillet_chamfer" id="path-effect862" is_visible="true" lpeversion="1" satellites_param="F,0,0,1,0,25.783993,0,1 @ F,0,0,1,0,26.579387,0,1 @ F,0,0,1,0,0,0,1 @ F,0,0,1,0,27.57576,0,1 @ F,0,0,1,0,29.413045,0,1 @ F,0,0,1,0,0,0,1 @ F,0,0,1,0,39.985442,0,1 @ F,0,0,1,0,0,0,1" unit="px" method="auto" mode="F" radius="0" chamfer_steps="1" flexible="false" use_knot_distance="true" apply_no_radius="true" apply_with_radius="true" only_selected="true" hide_knots="false" /><inkscape:path-effect effect="spiro" id="path-effect860" is_visible="true" lpeversion="1" /><inkscape:path-effect effect="spiro" id="path-effect857" is_visible="true" lpeversion="1" /><inkscape:path-effect effect="spiro" id="path-effect137" is_visible="true" lpeversion="1" /><inkscape:path-effect effect="spiro" id="path-effect133" is_visible="true" lpeversion="1" /><inkscape:path-effect effect="spiro" id="path-effect114" is_visible="true" lpeversion="1" /><inkscape:path-effect effect="spiro" id="path-effect853" is_visible="true" lpeversion="1" /><inkscape:path-effect effect="spiro" id="path-effect928" is_visible="true" lpeversion="1" /><inkscape:path-effect effect="spiro" id="path-effect921" is_visible="true" lpeversion="1" /><inkscape:path-effect effect="spiro" id="path-effect917" is_visible="true" lpeversion="1" /><inkscape:path-effect effect="spiro" id="path-effect849" is_visible="true" lpeversion="1" /><inkscape:path-effect effect="spiro" id="path-effect851" is_visible="true" lpeversion="1" />
  <svg:style type="text/css" id="style2">
   
    .fil0 {fill:#EF7F1A;fill-rule:nonzero}
   
  </svg:style>
 <inkscape:path-effect effect="spiro" id="path-effect1214" is_visible="true" lpeversion="1" /><inkscape:path-effect effect="spiro" id="path-effect1195" is_visible="true" lpeversion="1" /><inkscape:path-effect effect="spiro" id="path-effect992" is_visible="true" lpeversion="1" /><inkscape:path-effect effect="spiro" id="path-effect1060" is_visible="true" lpeversion="1" /><inkscape:path-effect effect="spiro" id="path-effect1047" is_visible="true" lpeversion="1" /><inkscape:path-effect effect="spiro" id="path-effect1085" is_visible="true" lpeversion="1" /><inkscape:path-effect effect="spiro" id="path-effect1286" is_visible="true" lpeversion="1" /><inkscape:path-effect effect="spiro" id="path-effect117" is_visible="true" lpeversion="1" /></svg:defs>
 
<svg:g id="path858"><svg:path style="color:#000000;clip-rule:nonzero;fill:#1a5fb4;fill-rule:nonzero;stroke-linecap:round;stroke-linejoin:round;-inkscape-stroke:none;paint-order:fill stroke markers;shape-rendering:auto" d="M 233.10742,-189.79883 C 218.65368999999998,-189.37478000000002 204.79424999999998,-182.04038 196.52344,-169.58594 L 150.75781,-100.67187999999999 L 122.38086000000001,-164.29297 C 113.73035000000002,-183.68669 91.64270800000001,-194.05307 71.19726600000001,-188.31445 L -3.9375,-167.22461 C -13.808548,-164.45401 -26.382208,-155.95114 -30.25,-141.53516000000002 C -34.117792,-127.11917000000003 -27.605937,-113.67214000000001 -20.572266,-106.31055000000002 C 1.0855873000000003,-83.64296000000002 21.304676999999998,-59.59417700000002 39.914062,-34.365234000000015 C 71.91577000000001,9.019821999999984 99.16681700000001,55.93984299999998 121.00195000000001,105.23437999999999 C 122.79577,109.28405999999998 125.21151,113.68451999999999 130.04297,118.21483999999998 C 134.87443,122.74515999999998 143.35959,127.46384999999998 153.14062,127.40038999999999 C 162.92166,127.33688999999998 171.32699000000002,122.51845999999999 176.09570000000002,117.93945 C 180.86441000000002,113.36045 183.22726000000003,108.94072 184.97461,104.875 C 204.40134,59.67297 229.24017,16.764998000000006 258.76953000000003,-22.582031 C 280.83199,-51.979633 305.52686000000006,-79.42157900000001 332.44141,-104.45703 C 339.77680000000004,-111.28029000000001 347.40024,-124.37813 344.03906,-139.41992 C 340.67789,-154.46171999999999 327.95875,-163.21926 318.30469,-166.17773 L 247.57422,-187.85352 C 242.80940999999999,-189.31369 237.92533,-189.94018 233.10742,-189.79883 M 240.45311999999998,-127.28125 L 263.29102,-120.2832 C 244.61863,-100.75276 227.00338,-80.213189 210.78125,-58.59765599999999 C 201.9846,-46.87636499999999 193.60578,-34.84824499999999 185.58789000000002,-22.585936999999994 L 179.69727,-35.79296899999999 L 240.45311999999998,-127.28125 M 73.47851599999998,-126.63672 L 111.45702999999997,-41.492187 L 109.83397999999997,-39.048828 C 102.85147,-49.517003 95.67192,-59.854248 88.201172,-69.982422 C 75.606264,-87.057472 62.254563,-103.56151 48.34375,-119.58008 L 73.47851599999998,-126.63672" id="path8850" /></svg:g></svg:svg>

<svg:svg xmlns:cc="http://creativecommons.org/ns#" xmlns:dc="http://purl.org/dc/elements/1.1/" xmlns:inkscape="http://www.inkscape.org/namespaces/inkscape" xmlns:rdf="http://www.w3.org/1999/02/22-rdf-syntax-ns#" xmlns:sodipodi="http://sodipodi.sourceforge.net/DTD/sodipodi-0.dtd" xmlns:svg="http://www.w3.org/2000/svg" xml:space="preserve" width="1000" height="1000" version="1.1" style="clip-rule:evenodd;fill-rule:evenodd;image-rendering:optimizeQuality;shape-rendering:geometricPrecision;text-rendering:geometricPrecision" viewBox="0 0 1000 1000" id="svg10" sodipodi:docname="caron.svg" inkscape:version="1.1.1 (3bf5ae0d25, 2021-09-20)"><svg:text text-anchor="middle" x="153.92377" y="106.98389" id="top" inkscape:label="top" style="clip-rule:evenodd;fill-rule:evenodd;image-rendering:optimizeQuality;shape-rendering:geometricPrecision;text-rendering:geometricPrecision">✛</svg:text><svg:metadata id="metadata14"><rdf:RDF><cc:Work rdf:about=""><dc:format>image/svg+xml</dc:format><dc:type rdf:resource="http://purl.org/dc/dcmitype/StillImage" /><dc:title /></cc:Work></rdf:RDF></svg:metadata><sodipodi:namedview pagecolor="#ffffff" bordercolor="#666666" borderopacity="1" objecttolerance="10" gridtolerance="10" guidetolerance="10" inkscape:pageopacity="0" inkscape:pageshadow="2" inkscape:window-width="1920" inkscape:window-height="1009" id="namedview12" showgrid="false" inkscape:zoom="1.2005384" inkscape:cx="92.874997" inkscape:cy="84.128921" inkscape:window-x="0" inkscape:window-y="60" inkscape:window-maximized="1" inkscape:current-layer="svg10" showguides="true" inkscape:guide-bbox="true" inkscape:document-rotation="0" inkscape:pagecheckerboard="0"><sodipodi:guide position="0,1000" orientation="0,1" id="guide16" inkscape:label="" inkscape:locked="true" inkscape:color="rgb(0,0,255)" /><sodipodi:guide position="1763.3122,2036.1693" orientation="1000,0" id="guide18" /><sodipodi:guide position="0,200" orientation="0,1" id="guide20" inkscape:label="base" inkscape:locked="true" inkscape:color="rgb(0,0,255)" /><inkscape:grid type="xygrid" id="grid24" originx="-473.37552" originy="-489.69235" /><sodipodi:guide position="0,0" orientation="0,1" id="guide34" inkscape:label="bottom" inkscape:locked="true" inkscape:color="rgb(0,0,255)" /><sodipodi:guide position="225.05109,1693.3186" orientation="0,1" id="guide44" inkscape:label="" inkscape:locked="false" inkscape:color="rgb(0,0,255)" /><sodipodi:guide position="0,900" orientation="0,1" id="guide46" inkscape:label="" inkscape:locked="true" inkscape:color="rgb(0,0,255)" /><sodipodi:guide position="315.41807,1130.6747" orientation="1,0" id="guide841" inkscape:label="width" />    <sodipodi:guide position="-210.85892,799.74293" orientation="0,-1" id="guide856" /></sodipodi:namedview>
 <svg:defs id="defs4"><inkscape:path-effect effect="fillet_chamfer" id="path-effect861" is_visible="true" lpeversion="1" satellites_param="F,0,0,1,0,11.442237,0,1 @ F,0,1,1,0,11.442237,0,1 @ F,0,0,1,0,0,0,1 @ F,0,0,1,0,0,0,1 @ F,0,1,1,0,11.442237,0,1 @ F,0,1,1,0,11.442237,0,1 @ F,0,0,1,0,0,0,1 @ F,0,1,1,0,11.442237,0,1 @ F,0,0,1,0,0,0,1" unit="px" method="auto" mode="F" radius="0" chamfer_steps="1" flexible="false" use_knot_distance="true" apply_no_radius="true" apply_with_radius="true" only_selected="false" hide_knots="false" /><inkscape:path-effect effect="fillet_chamfer" id="path-effect862" is_visible="true" lpeversion="1" satellites_param="F,0,0,1,0,25.783993,0,1 @ F,0,0,1,0,26.579387,0,1 @ F,0,0,1,0,0,0,1 @ F,0,0,1,0,27.57576,0,1 @ F,0,0,1,0,29.413045,0,1 @ F,0,0,1,0,0,0,1 @ F,0,0,1,0,39.985442,0,1 @ F,0,0,1,0,0,0,1" unit="px" method="auto" mode="F" radius="0" chamfer_steps="1" flexible="false" use_knot_distance="true" apply_no_radius="true" apply_with_radius="true" only_selected="true" hide_knots="false" /><inkscape:path-effect effect="spiro" id="path-effect860" is_visible="true" lpeversion="1" /><inkscape:path-effect effect="spiro" id="path-effect857" is_visible="true" lpeversion="1" /><inkscape:path-effect effect="spiro" id="path-effect137" is_visible="true" lpeversion="1" /><inkscape:path-effect effect="spiro" id="path-effect133" is_visible="true" lpeversion="1" /><inkscape:path-effect effect="spiro" id="path-effect114" is_visible="true" lpeversion="1" /><inkscape:path-effect effect="spiro" id="path-effect853" is_visible="true" lpeversion="1" /><inkscape:path-effect effect="spiro" id="path-effect928" is_visible="true" lpeversion="1" /><inkscape:path-effect effect="spiro" id="path-effect921" is_visible="true" lpeversion="1" /><inkscape:path-effect effect="spiro" id="path-effect917" is_visible="true" lpeversion="1" /><inkscape:path-effect effect="spiro" id="path-effect849" is_visible="true" lpeversion="1" /><inkscape:path-effect effect="spiro" id="path-effect851" is_visible="true" lpeversion="1" />
  <svg:style type="text/css" id="style2">
   
    .fil0 {fill:#EF7F1A;fill-rule:nonzero}
   
  </svg:style>
 <inkscape:path-effect effect="spiro" id="path-effect1214" is_visible="true" lpeversion="1" /><inkscape:path-effect effect="spiro" id="path-effect1195" is_visible="true" lpeversion="1" /><inkscape:path-effect effect="spiro" id="path-effect992" is_visible="true" lpeversion="1" /><inkscape:path-effect effect="spiro" id="path-effect1060" is_visible="true" lpeversion="1" /><inkscape:path-effect effect="spiro" id="path-effect1047" is_visible="true" lpeversion="1" /><inkscape:path-effect effect="spiro" id="path-effect1085" is_visible="true" lpeversion="1" /><inkscape:path-effect effect="spiro" id="path-effect1286" is_visible="true" lpeversion="1" /><inkscape:path-effect effect="spiro" id="path-effect117" is_visible="true" lpeversion="1" /></svg:defs>
 
<svg:g id="path858"><svg:path style="color:#000000;clip-rule:nonzero;fill:#1a5fb4;fill-rule:nonzero;stroke-linecap:round;stroke-linejoin:round;-inkscape-stroke:none;shape-rendering:auto" d="m 233.10742,-189.79883 c -14.45373,0.42405 -28.31317,7.75845 -36.58398,20.21289 l -45.76563,68.91406 -28.37695,-63.62109 c -8.65051,-19.39372 -30.738152,-29.7601 -51.183594,-24.02148 L -3.9375,-167.22461 c -9.871048,2.7706 -22.444708,11.27347 -26.3125,25.68945 -3.867792,14.41599 2.644063,27.86302 9.677734,35.22461 21.6578533,22.66759 41.876943,46.716373 60.486328,71.945316 32.001708,43.385056 59.252755,90.305077 81.087888,139.599614 1.79382,4.04968 4.20956,8.45014 9.04102,12.98046 4.83146,4.53032 13.31662,9.24901 23.09765,9.18555 9.78104,-0.0635 18.18637,-4.88193 22.95508,-9.46094 4.76871,-4.579 7.13156,-8.99873 8.87891,-13.06445 19.42673,-45.20203 44.26556,-88.110002 73.79492,-127.457031 22.06246,-29.397602 46.75733,-56.839548 73.67188,-81.874999 7.33539,-6.82326 14.95883,-19.9211 11.59765,-34.96289 -3.36117,-15.0418 -16.08031,-23.79934 -25.73437,-26.75781 l -70.73047,-21.67579 c -4.76481,-1.46017 -9.64889,-2.08666 -14.4668,-1.94531 z m 7.3457,62.51758 22.8379,6.99805 c -18.67239,19.53044 -36.28764,40.070011 -52.50977,61.685544 -8.79665,11.721291 -17.17547,23.749411 -25.19336,36.011719 l -5.89062,-13.207032 z m -166.974604,0.64453 37.978514,85.144533 -1.62305,2.443359 C 102.85147,-49.517003 95.67192,-59.854248 88.201172,-69.982422 75.606264,-87.057472 62.254563,-103.56151 48.34375,-119.58008 Z" id="path8838" /></svg:g></svg:svg>
